X:1
T:Kosovo, 87.87 D
T:William F. Gibson, 1891
T:Kosovo, 87.87 D
T:Public Domain
C:William F. Gibson, 1891
Z:Public Domain
%%score ( 1 2 ) ( 3 4 )
L:1/8
M:9/8
K:D
V:1 treble 
V:2 treble 
V:3 bass 
V:4 bass 
V:1
 [DF]2 [EG] | [FA]3- [FA]2 [Af] (ed)[GB] | [FA]3 [DF]3 [D^E]2 [DF] | %3
 [GB]3- [GB]2 [GA] [CE]2 [C^E] | [DF]6 [DF]2 [EG] | [FA]3- [FA]2 [Af] (ed)[GB] | %6
 [FA]3 [DF]3 [FA]2 [=FB] | [Ec]3- [Ec]2 [Ae] (ed)[=GB] | A6 A2 A | [Ge]3- (ed)[Gc] (cB)[GA] | %10
 [GB]3 [FA]3 [FA]2 [Fd] | [Gd]3- [Gd]2 [Gc] [EG]2 [GB] | [GB]3 [FA]3 [DF]2 [EG] | %13
 [FA]3- [FA]2 [Af] (ed)[GB] | [FA]3 [Fd]3 (dc)[GB] | [FA]3- [FA]2 [Af] [Af]2 [Ge] | [Fd]6 |] %17
V:2
 x3 | x6 G2 x | x9 | x9 | x9 | x6 G2 x | x9 | x6 ^G2 x | A6 A2 A | x3 G2 G2 x2 | x9 | x9 | x9 | %13
 x6 A2 x | x6 G2 x | x9 | x6 |] %17
V:3
 [D,A,]2 [D,A,] | [D,D]3- [D,D]2 [D,D] [G,B,]2 [G,D] | [D,D]3 [D,A,]3 [D,A,]2 [D,A,] | %3
 [A,C]3- [A,C]2 [A,C] [A,,A,]2 [A,,A,] | [D,A,]6 [D,A,]2 [D,A,] | %5
 [D,D]3- [D,D]2 [D,D] [G,B,]2 [G,D] | [D,D]3 [D,A,]3 [D,A,]2 [D,^G,] | %7
 [E,A,]3- [E,A,]2 [E,C] [E,B,]2 [E,D] | [A,,C]6 A,2 A, | [A,C]3- (CD)[A,E] (ED)[A,C] | %10
 [D,D]3 [D,D]3 [D,D]2 [D,D] | [A,E]3- [A,E]2 [A,E] [A,,C]2 [A,,C] | [D,D]6 [D,A,]2 [D,A,] | %13
 [D,D]3- [D,D]2 [D,D] [G,B,]2 [G,D] | [D,D]3 [D,D]3 (B,C)[G,D] | %15
 [A,D]3- [A,D]2 [A,D] [A,,C]2 [A,,C] | [D,D]6 |] %17
V:4
 x3 | x9 | x9 | x9 | x9 | x9 | x9 | x9 | x6 A,2 A, | x3 A,2 A,2 x2 | x9 | x9 | x9 | x9 | x6 G,2 x | %15
 x9 | x6 |] %17

